icons/erlang.svg

<svg width="32" height="32" viewBox="0 0 32 32" fill="none" xmlns="http://www.w3.org/2000/svg">
<path d="M6.388 23.867C5.27158 22.8106 4.38866 21.5323 3.79603 20.1142C3.2034 18.6961 2.91418 17.1696 2.947 15.633C2.89886 12.8572 3.92496 10.1702 5.811 8.133H2V23.863L6.388 23.867ZM26.454 23.867C27.4252 22.9298 28.2773 21.8765 28.991 20.731L24.773 18.858C24.089 20.0369 23.1255 21.0293 21.9673 21.7479C20.8092 22.4664 19.492 22.8888 18.132 22.978C13.773 22.964 12.06 19.649 12.069 15.394H28.36C28.3826 15.0827 28.3826 14.7703 28.36 14.459C28.5094 12.1694 27.7842 9.90854 26.331 8.133H30V23.863H26.456L26.454 23.867ZM12.332 11.742C12.4549 10.811 12.925 9.96081 13.6483 9.36182C14.3715 8.76283 15.2944 8.45928 16.232 8.512C16.679 8.47898 17.1279 8.53762 17.5514 8.68434C17.9749 8.83105 18.3639 9.06274 18.6947 9.36519C19.0254 9.66764 19.2908 10.0345 19.4747 10.4432C19.6586 10.8519 19.757 11.2939 19.764 11.742H12.332Z" fill="#A2003E"/>
</svg>

<svg width="32" height="32" fill="none" xmlns="http://www.w3.org/2000/svg"><path d="M6.388 23.867a11.013 11.013 0 01-3.441-8.234 10.765 10.765 0 012.864-7.5H2v15.73l4.388.004zm20.066 0a16.438 16.438 0 002.537-3.136l-4.218-1.873a8.307 8.307 0 01-6.641 4.12c-4.359-.014-6.072-3.329-6.063-7.584H28.36a6.456 6.456 0 000-.935 9.057 9.057 0 00-2.029-6.326H30v15.73h-3.544l-.002.004zM12.332 11.742a3.723 3.723 0 013.9-3.23 3.29 3.29 0 013.532 3.23h-7.432z" fill="#A2003E"/></svg>
